X: 106101
Q:"Strathspey."
M: C
L: 1/16
K: Am
|: a2 |\
ue2 |\
aa3 ea3 (ca3) e4 | gg3 dg3 (Bg3) d4 |
aa3 e3a (ca3) e3ug | a3eg3B {B}A4 A3ug |\
aa3 e3a (ca3) e3^f | gg3 d3g (Bg3) d3g |\
aa3 e3a gb3 e3ug | a3e g3B {B}A4 A2 |]


